svg/paper-plane.svg

<svg xmlns="http://www.w3.org/2000/svg" viewBox="0 0 58 58" enable-background="new 0 0 58 58"><style type="text/css">.st0{fill:#333333;}</style><title>paper-plane</title><desc>Created with Sketch.</desc><path class="st0" d="M53.9.8l-51.7 17.2c-2.6.9-2.7 2.5-.1 3.5l24.1 10.1 10.1 24.1c1.1 2.5 2.6 2.5 3.5-.1l17.2-51.6c.9-2.7-.5-4.1-3.1-3.2zm-45.1 19.2l40.2-13.4-21.3 21.4-18.9-8zm29 29.1l-8-19 21.5-21.5-13.5 40.5z"/></svg>

<svg xmlns="http://www.w3.org/2000/svg" viewBox="0 0 58 58"><path d="M53.9.8L2.2 18c-2.6.9-2.7 2.5-.1 3.5l24.1 10.1 10.1 24.1c1.1 2.5 2.6 2.5 3.5-.1L57 4c.9-2.7-.5-4.1-3.1-3.2zM8.8 20L49 6.6 27.7 28 8.8 20zm29 29.1l-8-19L51.3 8.6 37.8 49.1z" fill="#333"/></svg>
